X: 60
T:Jimmy Ward's Jig
R:jig
M:6/8
K:G
|: ~G3 GAB | AGE GED | ~G3 AGE | GED DEF |
~G3 GAB | AGE GAB | cBA BGE |1 DED DEF:|2 DED D3
|: cBA BAG | ABA AGE | BcA BGE | DED D3 |
cBA BAG | ABA ABc | dcA AGE |1 DED D3 :|2 DED DEF|

